X: 8030
T: Connemara, The
R: hornpipe
M: 4/4
K: Gmajor
|:GA|B2BA G2GB|dBeB d2 (3def|gage dBGB|A2AB AGEG|
B2BA G2GB|dBeB d2 (3def|gage dBAc|B2G2 G2:|
|:g2|gfed efga|bagb a2ga|bgag (3efg dB|A2AB AGEG|
BcBA G2GB|dBeB d2 (3def|gage dBAc|B2G2 G2:|

